X: 25
I: linebreak $
T: Bransle des Lavandieres (Washerwomen's Bransle)
C: Jean d'Estrées, Premier livre de danseries, 1559
N: 
K: F major
M: 4/4
L: 1/8
 "Gm"G2G2 G2G2 | "D"^F2F2 "Bb"B4 | "F"cd"Cm"_ed "F"cB"Gm"AG | "Dsus4"^FG2F "G"G4 :: "Gm"G2d2 B2"Dm"d2 | "F"c2"Gm"B2 "D"A2"G"G2 :| 
"Gm"G2G2 "D"^F4 | "Gm"G4 "F"A4 | "F"A4 A2"C"GA | "Gm"BcB2 "D"A2"Gm"G2 | "Gm"G2G2 "D"^F4 | "Gm"G4 "F"A4 | 
"F"ABcB A2"Gm"G2- | "Dsus4"G2^F2 "G"G4 |] 

